local/share/icons/dracula-icons-main/scalable/apps/jdownloader.svg

<?xml version="1.0" encoding="UTF-8"?>
<svg width="64" height="64" version="1.1" viewBox="0 0 16.933 16.933" xmlns="http://www.w3.org/2000/svg" xmlns:cc="http://creativecommons.org/ns#" xmlns:dc="http://purl.org/dc/elements/1.1/" xmlns:rdf="http://www.w3.org/1999/02/22-rdf-syntax-ns#">
 <metadata>
  <rdf:RDF>
   <cc:Work rdf:about="">
    <dc:format>image/svg+xml</dc:format>
    <dc:type rdf:resource="http://purl.org/dc/dcmitype/StillImage"/>
    <dc:title/>
   </cc:Work>
  </rdf:RDF>
 </metadata>
 <circle cx="8.4665" cy="8.4665" r="7.1436" fill="#0f2228" style="paint-order:stroke fill markers"/>
 <path d="m5.3894 2.0267a7.1436 7.1436 0 0 0-0.55899 0.29996h0.073218l0.037144 0.1193-0.10537 0.098367 0.45005 0.012572 0.068937 0.16255-0.50648-0.018858-0.025004-0.12487-0.29503-0.064185a7.1436 7.1436 0 0 0-0.30218 0.21627h0.17645v0.11791l-0.077509 0.10322h-0.36968v-0.015324a7.1436 7.1436 0 0 0-2.2281 3.1883l0.039044 0.018573v0.59649l0.29928 0.51291 0.24417 0.037504 0.031397-0.17573-0.2881-0.44433-0.055832-0.43255h0.16813l0.071145 0.44505 0.41579 0.60756-0.10673 0.19609 0.26438 0.4054 0.65646 0.16323v-0.1068l0.26217 0.037504-0.02429 0.18788 0.20574 0.037504 0.31896 0.087152 0.45005 0.51434 0.57542 0.043219 0.055716 0.47005-0.39326 0.27574-0.018215 0.42004-0.05644 0.25646 0.56899 0.71436 0.043219 0.24431s0.20645 0.05643 0.23181 0.05643c0.025004 0 0.46255 0.33218 0.46255 0.33218v1.2905l0.15609 0.04393-0.10608 0.59506 0.26253 0.35111-0.048224 0.59006 0.34682 0.61114 0.44219 0.38647a7.1436 7.1436 0 0 0 0.023577 0.0042l0.4279 0.0075 0.043219-0.1443-0.32861-0.27753 0.018939-0.13823 0.05858-0.16895 0.012497-0.17216-0.22252-0.0071-0.11251-0.14073 0.18502-0.17859 0.025004-0.13394-0.20645-0.05929 0.012497-0.12501 0.2936-0.04465 0.44719-0.21538 0.15001-0.27574 0.46898-0.60113-0.10608-0.47039 0.14359-0.25038 0.43112 0.01321 0.29039-0.23074 0.094298-0.9076 0.32146-0.40968 0.05644-0.2636-0.29361-0.0943-0.19395-0.31821-0.66293-0.00675-0.52506-0.20109-0.024647-0.37504-0.17573-0.30718-0.47505-0.0067789-0.27396-0.43183-0.24431-0.1193-0.012497 0.13109-0.44362 0.026426-0.16287-0.22681-0.46219-0.09394-0.38183 0.44148-0.59971-0.1018-0.044299-0.67828-0.4379-0.074651 0.17573-0.33254-0.050365-0.19109-0.57542 0.38575-0.36218-0.043928-0.12891-0.28396 0.07883-0.29253 0.19938-0.36825 0.46005-0.23288 0.88724-7.144e-4 -0.0021215 0.27146 0.31896 0.14859-0.025361-0.46326 0.22967-0.23252 0.46398-0.30468 0.032149-0.21502 0.46255-0.48255 0.49148-0.27289-0.043219-0.036075 0.33289-0.31396 0.12215 0.03179 0.05644 0.070722 0.12644-0.14109 0.030356-0.013216-0.13787-0.019645-0.14109-0.047148v-0.13541l0.074645-0.060721h0.16394l0.075368 0.032861 0.065003 0.1318 0.080007-0.011787v-0.012144l0.022497 0.00786 0.23074-0.035004 0.032863-0.11287 0.13109 0.032861v0.12251l-0.12144 0.083937 0.018215 0.13394 0.41719 0.12894s7.146e-4 0.00214 0.00145 0.00572l0.096436-0.0085741 0.006075-0.18145-0.33111-0.15109-0.018929-0.086794 0.27467-0.093939 0.01214-0.26396-0.28684-0.17502-0.018929-0.44433-0.39397 0.19395h-0.14392l0.037861-0.33836-0.53577-0.12698-0.22181 0.16816v0.5122l-0.39933 0.1268-0.15966 0.33432-0.17359 0.02786v-0.4279l-0.37468-0.051434-0.18752-0.12216-0.075368-0.27692 0.67043-0.39347 0.32789-0.09976 0.03322 0.22045 0.18288-0.00907 0.013934-0.1109 0.19109-0.027896 0.00357-0.038396-0.082148-0.034182-0.018938-0.11787 0.23502-0.019537 0.14144-0.14859 0.00781-0.010465 0.00212 6.785e-4 0.043219-0.044647 0.49398-0.062792 0.21824 0.18627-0.57256 0.30557 0.729 0.1723 0.093941-0.24417h0.31897l0.11226-0.21278-0.22467-0.056506v-0.26928l-0.7065-0.31393-0.48755 0.056506-0.27503 0.14441 0.018929 0.35089-0.28824-0.043934-0.043933-0.19395 0.27574-0.25113-0.50041-0.024431-0.14359 0.043255-0.062148 0.16884 0.18681 0.032075-0.036787 0.18766-0.31896 0.018824-0.049294 0.12491-0.46255 0.013251s-0.012864-0.26303-0.031436-0.26303c-0.018572 3.57e-5 0.36218-0.00625 0.36218-0.00625l0.27539-0.26999-0.15002-0.075329-0.20002 0.19463-0.33146-0.01886zm7.744 1.036-0.22717 0.089295-0.14609 0.15905 0.03358 0.18559 0.1793 0.025003 0.10751 0.27074 0.30896-0.12501 0.05108 0.36147h-0.09287l-0.25395-0.037504-0.2811 0.047505-0.27217 0.38504-0.38933 0.061436-0.05643 0.33396 0.16466 0.038219-0.0475 0.21502-0.38647-0.077508-0.35432 0.077508-0.07537 0.19752 0.06143 0.41504 0.20788 0.09751 0.34897-0.00214 0.23574-0.020717 0.07179-0.18823 0.36825-0.47934 0.24288 0.049291 0.2386-0.21609 0.04465 0.16895 0.5872 0.39754-0.07179 0.096081-0.26503-0.01393 0.1018 0.14466 0.16323 0.035361 0.19038-0.079294-4e-3 -0.23038 0.08501-0.042504-0.06825-0.072508-0.39216-0.21895-0.10251-0.2911h0.32575l0.10394 0.10323 0.28039 0.24288 0.01178 0.29289 0.2911 0.30968 0.10787-0.42469 0.20109-0.11037 0.0375 0.34754 0.19681 0.21609 0.09144-0.00143a7.1436 7.1436 0 0 0-1.0604-1.8088l-0.47362-0.0042815-0.032149-0.10715 0.28182-0.14394a7.1436 7.1436 0 0 0-0.66971-0.66825zm-8.7373 0.073937c0.013934 0 0 0.16395 0 0.16395l-0.37075 0.023717-0.070364-0.084402 0.26253-0.075365s0.1643-0.027896 0.17859-0.027896zm0.4504 0.79862 0.17788 0.042861-0.061435 0.23931-0.19252 0.061078-0.12144-0.24967zm0.48755 0.56792h0.29539v0.090009h0.064646v0.15502h-0.44969l-0.16823-0.04679 0.041792-0.10823zm0.4404 0.066435 0.15466 0.14073-0.15466 0.037861zm0.34039 0.21609 0.1143 0.071793-0.0918 0.076079-0.09072-0.076079zm-0.86509 0.023931h0.24824l-0.3186 0.44576-0.13108-0.070722 0.027858-0.18752zm0.39897 0h0.25253v0.15002l-0.11216 0.072508-0.14037 0.026432zm0.31396 0.16466h0.018938l0.2861 0.084295v0.14573h-0.23931l-0.065726-0.094652zm-0.11787 0.13537v0.14644l-0.10751 0.10787h-0.23931l0.037858-0.16395 0.11287-0.00964 0.02322-0.056435zm7.4365 0.62078-0.84402 0.065364-0.26146 0.14109h-0.33504l-0.16466-0.016793-0.40647 0.22681v0.42612l-0.83223 0.60149 0.06894 0.25681h0.16895l-0.04393 0.24395-0.11858 0.043933-0.0071 0.639 0.71936 0.82044h0.31253l0.01928-0.049648h0.56256l0.16177-0.15037h0.31932l0.1743 0.17573 0.47612 0.04929-0.06286 0.63364 0.5272 0.93331-0.27753 0.5322 0.01894 0.25074 0.21824 0.21895v0.60256l0.28753 0.38718v0.26396a7.1436 7.1436 0 0 0 1.6477-4.5598 7.1436 7.1436 0 0 0-0.3036-2.0406h-0.35504l-0.3654-0.27289-0.38433 0.037861v0.23502h-0.12216l-0.13108-0.094293-0.66722-0.1693z" fill="#5d9c21" stroke-width=".25513"/>
 <circle cx="8.4665" cy="8.4665" r="5.5561" fill="#fff" opacity=".15" stroke-width=".77778" style="paint-order:stroke fill markers"/>
 <circle cx="8.4665" cy="8.4665" r="3.9687" fill="#fff" opacity=".15" stroke-width=".55556" style="paint-order:stroke fill markers"/>
 <path d="m12.141 2.3511c0.66318 2.6876 0.33196 5.0992-0.72552 7.108-1.2364 2.3487-3.5109 4.1888-6.5611 5.161a7.1436 7.1436 0 0 0 3.2076 0.96969c2.2991-1.2226 4.1165-2.9787 5.2503-5.1324 0.88494-1.681 1.3321-3.5901 1.2941-5.6263a7.1436 7.1436 0 0 0-2.4654-2.48z" fill="#eab100" stroke-width=".25513"/>
 <path transform="scale(.26458)" d="m32 5c-2.8643 0.011742-5.7084 0.47917-8.4258 1.3848 6.015 5.4921 12.409 16.263 17.109 28.1 2.3097 5.8163 3.9825 11.966 5.8672 17.586 0 0 0.96846 1.9216 0.44922-0.07031l3.7754-0.60156c4.2246-0.39844 4.2246-1.3984 3.2598-3.8242-1.5504-5.3022-3.4007-10.792-5.5449-16.191-3.8897-9.7951-8.4929-19.251-14.264-26.271-0.74034-0.067747-1.4832-0.10489-2.2266-0.11133z" fill="#ffd517"/>
 <path d="m16.012 12.71a0.34962 0.48926 75.748 0 0-0.14125 0.01185l-4.8562 0.93009a0.34962 0.48926 75.748 0 0-0.33025 0.1718 0.34962 0.48926 75.748 0 0-0.01591 0.4295l1.4175 1.2915 1.4175 1.2921a0.34962 0.48926 75.748 0 0 0.83109-0.15936l1.0106-1.7565 1.0111-1.7571a0.34962 0.48926 75.748 0 0-0.34417-0.45379z" fill="#ffd517" stroke-width=".26458"/>
</svg>

<?xml version="1.0" encoding="UTF-8"?>
<svg xmlns="http://www.w3.org/2000/svg" xmlns:xlink="http://www.w3.org/1999/xlink" width="64" height="64" viewBox="0 0 64 64">
<defs>
<filter id="filter-remove-color" x="0%" y="0%" width="100%" height="100%">
<feColorMatrix color-interpolation-filters="sRGB" values="0 0 0 0 1 0 0 0 0 1 0 0 0 0 1 0 0 0 1 0" />
</filter>
<mask id="mask-0">
<g filter="url(#filter-remove-color)">
<rect x="-6.4" y="-6.4" width="76.8" height="76.8" fill="rgb(0%, 0%, 0%)" fill-opacity="0.15"/>
</g>
</mask>
<clipPath id="clip-0">
<rect x="0" y="0" width="17" height="17"/>
</clipPath>
<g id="source-13993" clip-path="url(#clip-0)">
<path fill-rule="nonzero" fill="rgb(100%, 100%, 100%)" fill-opacity="1" d="M 14.023438 8.464844 C 14.023438 11.535156 11.535156 14.023438 8.464844 14.023438 C 5.398438 14.023438 2.910156 11.535156 2.910156 8.464844 C 2.910156 5.398438 5.398438 2.910156 8.464844 2.910156 C 11.535156 2.910156 14.023438 5.398438 14.023438 8.464844 Z M 14.023438 8.464844 "/>
</g>
<mask id="mask-1">
<g filter="url(#filter-remove-color)">
<rect x="-6.4" y="-6.4" width="76.8" height="76.8" fill="rgb(0%, 0%, 0%)" fill-opacity="0.15"/>
</g>
</mask>
<clipPath id="clip-1">
<rect x="0" y="0" width="17" height="17"/>
</clipPath>
<g id="source-13997" clip-path="url(#clip-1)">
<path fill-rule="nonzero" fill="rgb(100%, 100%, 100%)" fill-opacity="1" d="M 12.433594 8.464844 C 12.433594 10.660156 10.660156 12.433594 8.464844 12.433594 C 6.273438 12.433594 4.496094 10.660156 4.496094 8.464844 C 4.496094 6.273438 6.273438 4.496094 8.464844 4.496094 C 10.660156 4.496094 12.433594 6.273438 12.433594 8.464844 Z M 12.433594 8.464844 "/>
</g>
</defs>
<path fill-rule="nonzero" fill="rgb(5.882353%, 13.333333%, 15.686275%)" fill-opacity="1" d="M 15.609375 8.464844 C 15.609375 12.410156 12.410156 15.609375 8.464844 15.609375 C 4.519531 15.609375 1.324219 12.410156 1.324219 8.464844 C 1.324219 4.519531 4.519531 1.324219 8.464844 1.324219 C 12.410156 1.324219 15.609375 4.519531 15.609375 8.464844 Z M 15.609375 8.464844 "/>
<path fill-rule="nonzero" fill="rgb(36.470588%, 61.176471%, 12.941176%)" fill-opacity="1" d="M 5.390625 2.027344 C 5.199219 2.117188 5.011719 2.21875 4.832031 2.328125 L 4.902344 2.328125 L 4.941406 2.445312 L 4.835938 2.542969 L 5.285156 2.558594 L 5.355469 2.71875 L 4.847656 2.699219 L 4.824219 2.574219 L 4.527344 2.511719 C 4.425781 2.582031 4.324219 2.652344 4.226562 2.726562 L 4.402344 2.726562 L 4.402344 2.847656 L 4.324219 2.949219 L 3.953125 2.949219 L 3.953125 2.933594 C 2.933594 3.769531 2.160156 4.875 1.726562 6.121094 L 1.765625 6.140625 L 1.765625 6.738281 L 2.066406 7.25 L 2.308594 7.289062 L 2.339844 7.113281 L 2.050781 6.667969 L 1.996094 6.234375 L 2.164062 6.234375 L 2.234375 6.679688 L 2.652344 7.289062 L 2.546875 7.484375 L 2.808594 7.890625 L 3.464844 8.050781 L 3.464844 7.945312 L 3.726562 7.984375 L 3.703125 8.171875 L 3.910156 8.207031 L 4.230469 8.296875 L 4.679688 8.808594 L 5.253906 8.851562 L 5.308594 9.324219 L 4.917969 9.597656 L 4.898438 10.019531 L 4.84375 10.273438 L 5.410156 10.988281 L 5.453125 11.234375 C 5.453125 11.234375 5.660156 11.289062 5.6875 11.289062 C 5.710938 11.289062 6.148438 11.621094 6.148438 11.621094 L 6.148438 12.914062 L 6.304688 12.957031 L 6.199219 13.550781 L 6.460938 13.902344 L 6.414062 14.492188 L 6.757812 15.105469 L 7.203125 15.492188 C 7.210938 15.492188 7.21875 15.492188 7.226562 15.496094 L 7.652344 15.503906 L 7.695312 15.359375 L 7.367188 15.082031 L 7.386719 14.941406 L 7.445312 14.773438 L 7.457031 14.601562 L 7.234375 14.59375 L 7.121094 14.453125 L 7.308594 14.273438 L 7.332031 14.140625 L 7.125 14.082031 L 7.140625 13.957031 L 7.433594 13.910156 L 7.878906 13.695312 L 8.03125 13.421875 L 8.5 12.820312 L 8.394531 12.347656 L 8.535156 12.097656 L 8.96875 12.113281 L 9.257812 11.882812 L 9.351562 10.972656 L 9.671875 10.5625 L 9.730469 10.300781 L 9.4375 10.207031 L 9.242188 9.886719 L 8.578125 9.882812 L 8.054688 9.679688 L 8.03125 9.304688 L 7.855469 8.996094 L 7.378906 8.992188 L 7.105469 8.558594 L 6.859375 8.441406 L 6.847656 8.570312 L 6.40625 8.597656 L 6.242188 8.371094 L 5.78125 8.277344 L 5.398438 8.71875 L 4.796875 8.617188 L 4.753906 7.9375 L 4.316406 7.863281 L 4.492188 7.53125 L 4.441406 7.339844 L 3.867188 7.726562 L 3.503906 7.683594 L 3.375 7.398438 L 3.453125 7.105469 L 3.652344 6.738281 L 4.113281 6.503906 L 5 6.503906 L 4.996094 6.773438 L 5.316406 6.921875 L 5.292969 6.460938 L 5.519531 6.226562 L 5.984375 5.921875 L 6.015625 5.707031 L 6.480469 5.226562 L 6.972656 4.953125 L 6.929688 4.917969 L 7.261719 4.601562 L 7.382812 4.632812 L 7.441406 4.703125 L 7.566406 4.5625 L 7.597656 4.550781 L 7.457031 4.53125 L 7.316406 4.484375 L 7.316406 4.347656 L 7.390625 4.289062 L 7.554688 4.289062 L 7.632812 4.320312 L 7.695312 4.453125 L 7.777344 4.441406 L 7.777344 4.429688 L 7.800781 4.4375 L 8.03125 4.402344 L 8.0625 4.289062 L 8.195312 4.320312 L 8.195312 4.445312 L 8.070312 4.527344 L 8.089844 4.660156 L 8.507812 4.789062 C 8.507812 4.789062 8.507812 4.792969 8.507812 4.796875 L 8.605469 4.789062 L 8.613281 4.605469 L 8.28125 4.457031 L 8.261719 4.367188 L 8.535156 4.273438 L 8.546875 4.011719 L 8.261719 3.835938 L 8.242188 3.390625 L 7.847656 3.585938 L 7.703125 3.585938 L 7.742188 3.246094 L 7.207031 3.121094 L 6.984375 3.289062 L 6.984375 3.800781 L 6.585938 3.925781 L 6.425781 4.261719 L 6.253906 4.289062 L 6.253906 3.859375 L 5.878906 3.808594 L 5.691406 3.6875 L 5.613281 3.410156 L 6.285156 3.015625 L 6.613281 2.917969 L 6.644531 3.136719 L 6.828125 3.128906 L 6.84375 3.019531 L 7.035156 2.988281 L 7.039062 2.953125 L 6.957031 2.917969 L 6.9375 2.800781 L 7.171875 2.78125 L 7.3125 2.632812 L 7.320312 2.621094 L 7.324219 2.621094 L 7.367188 2.578125 L 7.859375 2.515625 L 8.078125 2.699219 L 7.507812 3.007812 L 8.234375 3.179688 L 8.328125 2.933594 L 8.648438 2.933594 L 8.761719 2.722656 L 8.535156 2.664062 L 8.535156 2.394531 L 7.828125 2.082031 L 7.339844 2.136719 L 7.066406 2.28125 L 7.085938 2.632812 L 6.796875 2.589844 L 6.753906 2.394531 L 7.027344 2.144531 L 6.527344 2.121094 L 6.386719 2.164062 L 6.324219 2.332031 L 6.507812 2.363281 L 6.472656 2.550781 L 6.152344 2.570312 L 6.105469 2.695312 L 5.640625 2.710938 C 5.640625 2.710938 5.628906 2.445312 5.609375 2.445312 C 5.59375 2.445312 5.972656 2.441406 5.972656 2.441406 L 6.25 2.167969 L 6.097656 2.09375 L 5.898438 2.289062 L 5.566406 2.269531 Z M 13.132812 3.0625 L 12.90625 3.152344 L 12.761719 3.3125 L 12.792969 3.496094 L 12.972656 3.523438 L 13.082031 3.792969 L 13.390625 3.667969 L 13.441406 4.027344 L 13.347656 4.027344 L 13.09375 3.992188 L 12.8125 4.039062 L 12.539062 4.425781 L 12.152344 4.484375 L 12.09375 4.820312 L 12.257812 4.859375 L 12.210938 5.074219 L 11.824219 4.996094 L 11.472656 5.074219 L 11.394531 5.269531 L 11.457031 5.683594 L 11.664062 5.78125 L 12.015625 5.78125 L 12.25 5.757812 L 12.320312 5.570312 L 12.691406 5.09375 L 12.933594 5.140625 L 13.171875 4.925781 L 13.214844 5.09375 L 13.804688 5.492188 L 13.730469 5.589844 L 13.464844 5.574219 L 13.566406 5.71875 L 13.730469 5.753906 L 13.921875 5.675781 L 13.917969 5.445312 L 14.003906 5.402344 L 13.933594 5.328125 L 13.542969 5.109375 L 13.441406 4.820312 L 13.765625 4.820312 L 13.871094 4.921875 L 14.148438 5.164062 L 14.160156 5.457031 L 14.453125 5.769531 L 14.5625 5.34375 L 14.761719 5.234375 L 14.800781 5.582031 L 14.996094 5.796875 L 15.085938 5.796875 C 14.824219 5.144531 14.46875 4.535156 14.027344 3.984375 L 13.554688 3.980469 L 13.519531 3.875 L 13.804688 3.730469 C 13.59375 3.492188 13.371094 3.269531 13.132812 3.0625 Z M 4.394531 3.136719 C 4.410156 3.136719 4.394531 3.300781 4.394531 3.300781 L 4.023438 3.324219 L 3.953125 3.238281 L 4.21875 3.164062 C 4.21875 3.164062 4.382812 3.136719 4.394531 3.136719 Z M 4.847656 3.933594 L 5.023438 3.976562 L 4.964844 4.21875 L 4.769531 4.277344 L 4.648438 4.027344 Z M 5.335938 4.503906 L 5.628906 4.503906 L 5.628906 4.59375 L 5.695312 4.59375 L 5.695312 4.75 L 5.246094 4.75 L 5.074219 4.703125 L 5.117188 4.59375 Z M 5.773438 4.570312 L 5.929688 4.710938 L 5.773438 4.75 Z M 6.113281 4.785156 L 6.230469 4.859375 L 6.136719 4.933594 L 6.046875 4.859375 Z M 5.25 4.808594 L 5.496094 4.808594 L 5.179688 5.253906 L 5.046875 5.183594 L 5.074219 4.996094 Z M 5.648438 4.808594 L 5.902344 4.808594 L 5.902344 4.960938 L 5.789062 5.03125 L 5.648438 5.058594 Z M 5.960938 4.972656 L 5.980469 4.972656 L 6.269531 5.058594 L 6.269531 5.203125 L 6.027344 5.203125 L 5.960938 5.109375 Z M 5.84375 5.109375 L 5.84375 5.257812 L 5.738281 5.363281 L 5.496094 5.363281 L 5.535156 5.199219 L 5.648438 5.191406 L 5.671875 5.132812 Z M 13.28125 5.730469 L 12.4375 5.796875 L 12.175781 5.9375 L 11.839844 5.9375 L 11.675781 5.921875 L 11.269531 6.148438 L 11.269531 6.574219 L 10.4375 7.175781 L 10.507812 7.429688 L 10.675781 7.429688 L 10.632812 7.675781 L 10.511719 7.71875 L 10.503906 8.359375 L 11.226562 9.179688 L 11.539062 9.179688 L 11.558594 9.128906 L 12.121094 9.128906 L 12.28125 8.980469 L 12.601562 8.980469 L 12.773438 9.15625 L 13.25 9.203125 L 13.1875 9.835938 L 13.714844 10.769531 L 13.4375 11.304688 L 13.457031 11.554688 L 13.675781 11.773438 L 13.675781 12.375 L 13.960938 12.761719 L 13.960938 13.027344 C 15.027344 11.746094 15.609375 10.132812 15.609375 8.464844 C 15.609375 7.773438 15.507812 7.085938 15.304688 6.425781 L 14.953125 6.425781 L 14.585938 6.152344 L 14.203125 6.191406 L 14.203125 6.425781 L 14.078125 6.425781 L 13.949219 6.332031 L 13.28125 6.164062 Z M 13.28125 5.730469 "/>
<g mask="url(#mask-0)">
<use xlink:href="#source-13993"/>
</g>
<g mask="url(#mask-1)">
<use xlink:href="#source-13997"/>
</g>
<path fill-rule="nonzero" fill="rgb(91.764706%, 69.411765%, 0%)" fill-opacity="1" d="M 12.140625 2.351562 C 12.804688 5.039062 12.472656 7.449219 11.414062 9.460938 C 10.179688 11.808594 7.90625 13.648438 4.855469 14.621094 C 5.832031 15.191406 6.929688 15.527344 8.0625 15.589844 C 10.359375 14.367188 12.179688 12.609375 13.3125 10.457031 C 14.195312 8.777344 14.644531 6.867188 14.605469 4.832031 C 14.003906 3.8125 13.15625 2.960938 12.140625 2.351562 Z M 12.140625 2.351562 "/>
<path fill-rule="nonzero" fill="rgb(100%, 83.529412%, 9.019608%)" fill-opacity="1" d="M 8.464844 1.324219 C 7.707031 1.324219 6.957031 1.449219 6.238281 1.6875 C 7.828125 3.140625 9.519531 5.992188 10.765625 9.125 C 11.375 10.664062 11.816406 12.289062 12.316406 13.777344 C 12.316406 13.777344 12.574219 14.285156 12.433594 13.757812 L 13.433594 13.597656 C 14.550781 13.492188 14.550781 13.230469 14.296875 12.585938 C 13.886719 11.183594 13.398438 9.730469 12.828125 8.304688 C 11.800781 5.710938 10.582031 3.210938 9.054688 1.351562 C 8.859375 1.335938 8.664062 1.324219 8.464844 1.324219 Z M 8.464844 1.324219 "/>
<path fill-rule="nonzero" fill="rgb(100%, 83.529412%, 9.019608%)" fill-opacity="1" d="M 16.011719 12.710938 C 15.964844 12.707031 15.917969 12.710938 15.871094 12.722656 L 11.015625 13.652344 C 10.882812 13.675781 10.765625 13.738281 10.683594 13.824219 C 10.550781 13.964844 10.542969 14.140625 10.667969 14.253906 L 12.085938 15.542969 L 13.503906 16.835938 C 13.601562 16.929688 13.769531 16.964844 13.941406 16.929688 C 14.113281 16.898438 14.261719 16.800781 14.335938 16.675781 L 15.34375 14.921875 L 16.355469 13.164062 C 16.417969 13.058594 16.414062 12.945312 16.347656 12.855469 C 16.28125 12.769531 16.15625 12.714844 16.011719 12.710938 Z M 16.011719 12.710938 "/>
</svg>
